X:7283
T:The Road to Kilmallock
O:england
B:Joyce, P. W.; "Old Irish Folk Music and Songs"
R:tune
L:1/8
M:C
K:G
"Mod"\
BA|G>ABc d2 fa|gfed B2 cB|A>Bcd e2 fg|agfe d2 B>A|
Bdef gbaf|gedB A2 Bd|g2 dB [fd][ec][dB][BG]|A4 G2 z||d|
g2 ga gfed|egdc B3 B|A2 AB ABcd|egfd e3 d|
gabg efge|dedB A2 Bd|g2 dB [fd][ec][dB][BG]|~A4 G2||


